!!!Genre:	Dobridyen'
!!!Mode:	Freygish
!!!Listening/dance:	listening
!!!One_Mode:	yes
!!!:	AB
!!!Orig_tonic: unkown
**kern
*thru
*I"P1
*clefG2
*k[b-e-a-]
*G:frey
*M3/4
*>A
8g
=1!|:
4bn
4cc
(16ddLL
16ee-J
8ccJ)
=2
2dd
(16bnKL
8.gJ)
=3
(16ee-KL
8.ccJ)
(16ddKL
8.bnJ)
16ccLL
16bnJ
8a-J
=4
(2bn
8a-L
8gJ)
=5
4bn
4cc
(16ddLL
16ee-J
8ccJ)
=6
4.dd
8bn
8.ccL
16bnJk
=7
(8fL
8cJ)
(8fL
8a-J)
12ccL
12bn
12a-J
=8
2.g
=9:|!|:
*>B
(8ffL
8ggJ)
(8ffL
8ggJ)
(16ffKL
8.ee-J)
=10
(8ddL
8ee-J)
(8ddL
8ee-J)
(8ddL
8ccJ)
=11
(8bnL
8cc
8dd
8ee-
8gg
8ee-J
=12
2dd)
8bnL
8gJ
=13
(8ccL
8gJ)
(8bnL
8gJ)
(12a-L
12g)
12fJ
=14
4g
4bn
4dd
=15
(8fL
8cJ)
(8fL
8a-J)
12ccL
12bn
12a-J
=16
2.g
=:|!
*-
